images/zhuyin/35.svg

<svg width="50" height="50" viewBox="0 0 50 50" fill="none" xmlns="http://www.w3.org/2000/svg">
<path d="M31.9375 22.4609C30.5625 22.4609 28.4609 22.6484 25.6328 23.0234L25.7266 23.1406C26.0547 23.5938 26.2188 24.0234 26.2188 24.4297C26.2188 24.5234 26.1797 24.7969 26.1016 25.25C25.9297 26.9688 25.8438 28.9375 25.8438 31.1562C25.8438 31.8594 25.9375 32.3359 26.125 32.5859C26.2812 32.8203 26.6562 32.9375 27.25 32.9375C29.0625 32.9375 30.625 32.7422 31.9375 32.3516C32.3438 32.2422 32.5938 32.1875 32.6875 32.1875C32.9375 32.1875 33.2422 32.3594 33.6016 32.7031C33.8672 32.9688 34 33.2109 34 33.4297C34 33.8672 33.6797 34.1797 33.0391 34.3672C32.2109 34.6016 30.8438 34.7188 28.9375 34.7188C27.0781 34.7188 25.7812 34.4609 25.0469 33.9453C24.5156 33.5391 24.25 32.8281 24.25 31.8125V30.2188C24.3438 29.5 24.3984 27.7188 24.4141 24.875C23.6797 26.7656 22.8438 28.3594 21.9062 29.6562C20.5938 31.4219 19.1328 32.7344 17.5234 33.5938C16.6328 33.9688 16.125 34.1562 16 34.1562C15.9375 34.1562 15.9062 34.125 15.9062 34.0625C15.9062 33.9688 15.9922 33.8594 16.1641 33.7344C16.9453 33.0469 17.9219 31.9922 19.0938 30.5703C20.8438 28.3203 22.1641 25.9453 23.0547 23.4453C21.1797 23.7422 19.7656 24.0469 18.8125 24.3594C18.4375 24.4688 18.2188 24.5234 18.1562 24.5234C17.9219 24.5234 17.6016 24.3516 17.1953 24.0078C16.7734 23.6016 16.5625 23.2969 16.5625 23.0938C16.5625 22.9688 16.625 22.9062 16.75 22.9062C17.0781 22.9688 17.3906 23 17.6875 23C18.0469 23 18.5781 22.9453 19.2812 22.8359L23.4766 22.0859C24.1797 19.7891 24.5312 17.9141 24.5312 16.4609C24.5312 15.9609 24.4844 15.6094 24.3906 15.4062C24.2969 15.2344 24.25 15.1094 24.25 15.0312C24.25 14.9062 24.375 14.8438 24.625 14.8438C25.0469 14.8438 25.5938 15.0859 26.2656 15.5703C26.7969 15.9609 27.0625 16.2812 27.0625 16.5312C27.0625 16.6562 27 16.7812 26.875 16.9062C26.6406 17.1719 26.4219 17.8594 26.2188 18.9688C26 19.9531 25.7656 20.8828 25.5156 21.7578L26.2422 21.6172C28.6641 21.2578 30.0938 21 30.5312 20.8438C30.9844 20.7188 31.2656 20.6562 31.375 20.6562C31.7188 20.6562 32.1016 20.8516 32.5234 21.2422C32.8828 21.6641 33.0625 22 33.0625 22.25C33.0625 22.4375 32.9688 22.5312 32.7812 22.5312C32.5 22.4844 32.2188 22.4609 31.9375 22.4609Z" fill="#333333"/>
<path d="M25.6328 23.0234L25.5671 22.5278L24.6891 22.6442L25.2424 23.3358L25.6328 23.0234ZM25.7266 23.1406L26.1315 22.8474L26.1245 22.8376L26.117 22.8283L25.7266 23.1406ZM26.1016 25.25L25.6088 25.165L25.6058 25.1826L25.604 25.2002L26.1016 25.25ZM26.125 32.5859L26.541 32.3086L26.5333 32.297L26.525 32.2859L26.125 32.5859ZM31.9375 32.3516L31.8075 31.8686L31.7949 31.8723L31.9375 32.3516ZM33.6016 32.7031L33.9552 32.3495L33.9472 32.3418L33.6016 32.7031ZM33.0391 34.3672L33.1752 34.8483L33.1795 34.8471L33.0391 34.3672ZM25.0469 33.9453L24.7431 34.3425L24.7512 34.3487L24.7596 34.3545L25.0469 33.9453ZM24.25 30.2188L23.7542 30.1541L23.75 30.1863V30.2188H24.25ZM24.4141 24.875L24.9141 24.8777L23.948 24.694L24.4141 24.875ZM21.9062 29.6562L22.3076 29.9546L22.3115 29.9492L21.9062 29.6562ZM17.5234 33.5938L17.7175 34.0546L17.7387 34.0456L17.759 34.0348L17.5234 33.5938ZM16.1641 33.7344L16.4581 34.1387L16.4769 34.1251L16.4944 34.1097L16.1641 33.7344ZM19.0938 30.5703L19.4797 30.8884L19.4884 30.8773L19.0938 30.5703ZM23.0547 23.4453L23.5257 23.6131L23.8083 22.8198L22.9765 22.9515L23.0547 23.4453ZM18.8125 24.3594L18.9525 24.8394L18.9604 24.8371L18.9683 24.8345L18.8125 24.3594ZM17.1953 24.0078L16.8485 24.368L16.8601 24.3791L16.8723 24.3895L17.1953 24.0078ZM16.75 22.9062L16.8436 22.4151L16.7972 22.4062H16.75V22.9062ZM19.2812 22.8359L19.3581 23.3301L19.3692 23.3281L19.2812 22.8359ZM23.4766 22.0859L23.5646 22.5781L23.8652 22.5244L23.9547 22.2323L23.4766 22.0859ZM24.3906 15.4062L24.8446 15.1967L24.8376 15.1815L24.8296 15.1668L24.3906 15.4062ZM26.2656 15.5703L26.5618 15.1675L26.558 15.1647L26.2656 15.5703ZM26.875 16.9062L26.5214 16.5527L26.5104 16.5637L26.5001 16.5754L26.875 16.9062ZM26.2188 18.9688L26.7068 19.0772L26.7089 19.068L26.7106 19.0588L26.2188 18.9688ZM25.5156 21.7578L25.0349 21.6205L24.8112 22.4034L25.6106 22.2487L25.5156 21.7578ZM26.2422 21.6172L26.1688 21.1226L26.1579 21.1242L26.1472 21.1263L26.2422 21.6172ZM30.5312 20.8438L30.3983 20.3618L30.3805 20.3667L30.3631 20.3729L30.5312 20.8438ZM32.5234 21.2422L32.9041 20.918L32.8849 20.8954L32.8631 20.8753L32.5234 21.2422ZM32.7812 22.5312L32.6991 23.0244L32.7399 23.0312H32.7812V22.5312ZM31.9375 21.9609C30.5278 21.9609 28.3991 22.1523 25.5671 22.5278L25.6985 23.5191C28.5228 23.1446 30.5972 22.9609 31.9375 22.9609V21.9609ZM25.2424 23.3358L25.3361 23.453L26.117 22.8283L26.0232 22.7111L25.2424 23.3358ZM25.3216 23.4339C25.6107 23.8332 25.7188 24.1619 25.7188 24.4297H26.7188C26.7188 23.885 26.4987 23.3543 26.1315 22.8474L25.3216 23.4339ZM25.7188 24.4297C25.7188 24.4258 25.7187 24.4391 25.7142 24.4808C25.7102 24.5186 25.7038 24.5693 25.6945 24.6344C25.6759 24.7642 25.6475 24.9406 25.6088 25.165L26.5943 25.335C26.6337 25.1063 26.6639 24.9193 26.6844 24.7758C26.7032 24.6445 26.7188 24.5179 26.7188 24.4297H25.7188ZM25.604 25.2002C25.4301 26.9394 25.3438 28.9253 25.3438 31.1562H26.3438C26.3438 28.9497 26.4292 26.9981 26.5991 25.2998L25.604 25.2002ZM25.3438 31.1562C25.3438 31.5272 25.3682 31.8568 25.4235 32.1375C25.4776 32.4128 25.568 32.6766 25.725 32.8859L26.525 32.2859C26.4945 32.2452 26.4443 32.1458 26.4047 31.9445C26.3661 31.7487 26.3438 31.4884 26.3438 31.1562H25.3438ZM25.709 32.8633C25.8715 33.1071 26.1201 33.2474 26.3743 33.3268C26.628 33.4061 26.9256 33.4375 27.25 33.4375V32.4375C26.9806 32.4375 26.7938 32.4103 26.6726 32.3724C26.5518 32.3346 26.5347 32.2991 26.541 32.3086L25.709 32.8633ZM27.25 33.4375C29.0962 33.4375 30.7092 33.2388 32.0801 32.8308L31.7949 31.8723C30.5408 32.2456 29.0288 32.4375 27.25 32.4375V33.4375ZM32.0675 32.8344C32.2671 32.7806 32.4226 32.7419 32.5365 32.717C32.6668 32.6885 32.7023 32.6875 32.6875 32.6875V31.6875C32.5789 31.6875 32.4425 31.7139 32.3228 31.7401C32.1868 31.7698 32.0141 31.8131 31.8075 31.8688L32.0675 32.8344ZM32.6875 32.6875C32.7298 32.6875 32.91 32.7336 33.256 33.0644L33.9472 32.3418C33.5743 31.9852 33.1452 31.6875 32.6875 31.6875V32.6875ZM33.248 33.0567C33.4826 33.2913 33.5 33.4117 33.5 33.4297H34.5C34.5 33.0102 34.2518 32.6462 33.9551 32.3496L33.248 33.0567ZM33.5 33.4297C33.5 33.5103 33.4768 33.5697 33.4106 33.6343C33.3308 33.7122 33.176 33.8061 32.8986 33.8873L33.1795 34.8471C33.5428 34.7407 33.8685 34.5847 34.1089 34.3501C34.3631 34.1021 34.5 33.7866 34.5 33.4297H33.5ZM32.9029 33.8861C32.1466 34.1001 30.8396 34.2188 28.9375 34.2188V35.2188C30.8479 35.2188 32.2753 35.103 33.1752 34.8483L32.9029 33.8861ZM28.9375 34.2188C27.091 34.2188 25.9326 33.9563 25.3342 33.5361L24.7596 34.3545C25.6299 34.9656 27.0653 35.2188 28.9375 35.2188V34.2188ZM25.3506 33.5481C24.9967 33.2775 24.75 32.7554 24.75 31.8125H23.75C23.75 32.9008 24.0345 33.8006 24.7431 34.3425L25.3506 33.5481ZM24.75 31.8125V30.2188H23.75V31.8125H24.75ZM24.7458 30.2834C24.8445 29.5269 24.8985 27.7102 24.9141 24.8777L23.9141 24.8723C23.8984 27.7273 23.843 29.4731 23.7542 30.1541L24.7458 30.2834ZM23.948 24.694C23.2251 26.5549 22.408 28.1088 21.501 29.3633L22.3115 29.9492C23.2795 28.61 24.1342 26.9764 24.8801 25.056L23.948 24.694ZM21.505 29.358C20.2276 31.0763 18.8202 32.3345 17.2879 33.1527L17.759 34.0348C19.4455 33.1342 20.9599 31.7674 22.3075 29.9545L21.505 29.358ZM17.3294 33.1329C16.8866 33.3194 16.5449 33.4567 16.3014 33.5466C16.1791 33.5917 16.0876 33.6227 16.0235 33.6417C15.9389 33.6668 15.9491 33.6562 16 33.6562V34.6562C16.1134 34.6562 16.234 34.6223 16.3076 34.6005C16.4016 34.5726 16.5162 34.5333 16.6478 34.4847C16.9121 34.3871 17.2697 34.2431 17.7175 34.0546L17.3294 33.1329ZM16 33.6562C16.0458 33.6562 16.172 33.668 16.2832 33.7793C16.3945 33.8905 16.4062 34.0167 16.4062 34.0625H15.4062C15.4062 34.1708 15.4337 34.3439 15.5761 34.4864C15.7186 34.6288 15.8917 34.6562 16 34.6562V33.6562ZM16.4062 34.0625C16.4062 34.1167 16.3937 34.1585 16.3828 34.1841C16.3725 34.2085 16.363 34.2202 16.3639 34.2191C16.3645 34.2183 16.3711 34.2102 16.3876 34.1952C16.4038 34.1804 16.4268 34.1615 16.4581 34.1387L15.87 33.33C15.7642 33.4069 15.6598 33.4966 15.5775 33.6012C15.4975 33.7031 15.4062 33.8608 15.4062 34.0625H16.4062ZM16.4944 34.1097C17.3053 33.3962 18.3016 32.3177 19.4796 30.8883L18.7079 30.2523C17.5422 31.6667 16.5854 32.6976 15.8337 33.359L16.4944 34.1097ZM19.4884 30.8773C21.2687 28.5884 22.6159 26.1669 23.5257 23.6131L22.5837 23.2775C21.7122 25.7238 20.4188 28.0523 18.6991 30.2633L19.4884 30.8773ZM22.9765 22.9515C21.094 23.2495 19.6484 23.5591 18.6567 23.8843L18.9683 24.8345C19.8828 24.5346 21.2654 24.2348 23.1329 23.9392L22.9765 22.9515ZM18.6725 23.8794C18.4874 23.9334 18.3461 23.9723 18.2459 23.9974C18.1955 24.0099 18.16 24.0179 18.137 24.0224C18.1036 24.0289 18.1195 24.0234 18.1562 24.0234V25.0234C18.2242 25.0234 18.291 25.0112 18.3279 25.004C18.3751 24.9948 18.4295 24.9822 18.4885 24.9675C18.607 24.9379 18.7626 24.8948 18.9525 24.8394L18.6725 23.8794ZM18.1562 24.0234C18.1581 24.0234 18.1447 24.0236 18.1123 24.0136C18.0801 24.0036 18.0352 23.9854 17.9766 23.954C17.8579 23.8902 17.7058 23.7848 17.5183 23.6261L16.8723 24.3895C17.0911 24.5746 17.3022 24.7269 17.5038 24.8351C17.7003 24.9405 17.9233 25.0234 18.1562 25.0234V24.0234ZM17.5421 23.6477C17.343 23.4559 17.2108 23.3041 17.1318 23.19C17.0429 23.0615 17.0625 23.0394 17.0625 23.0938H16.0625C16.0625 23.3512 16.1876 23.583 16.3096 23.7592C16.4415 23.9498 16.6257 24.1534 16.8485 24.368L17.5421 23.6477ZM17.0625 23.0938C17.0625 23.1083 17.0585 23.2111 16.9629 23.3067C16.8673 23.4023 16.7646 23.4062 16.75 23.4062V22.4062C16.6104 22.4062 16.4139 22.4415 16.2558 22.5996C16.0977 22.7577 16.0625 22.9542 16.0625 23.0938H17.0625ZM16.6564 23.3974C17.0116 23.4651 17.3556 23.5 17.6875 23.5V22.5C17.4256 22.5 17.1446 22.4724 16.8436 22.4151L16.6564 23.3974ZM17.6875 23.5C18.0868 23.5 18.6491 23.4403 19.3581 23.33L19.2044 22.3419C18.5071 22.4503 18.0069 22.5 17.6875 22.5V23.5ZM19.3692 23.3281L23.5646 22.5781L23.3886 21.5937L19.1933 22.3437L19.3692 23.3281ZM23.9547 22.2323C24.6642 19.9146 25.0312 17.9854 25.0312 16.4609H24.0312C24.0312 17.8427 23.6952 19.6635 22.9985 21.9396L23.9547 22.2323ZM25.0312 16.4609C25.0312 15.9565 24.988 15.5075 24.8446 15.1967L23.9366 15.6158C23.9807 15.7113 24.0312 15.9654 24.0312 16.4609H25.0312ZM24.8296 15.1668C24.7893 15.0929 24.7657 15.041 24.7533 15.008C24.7473 14.992 24.7457 14.9852 24.746 14.9862C24.746 14.9863 24.75 15.0028 24.75 15.0312H23.75C23.75 15.1582 23.7853 15.2745 23.817 15.3592C23.8515 15.4511 23.8982 15.5477 23.9517 15.6457L24.8296 15.1668ZM24.75 15.0312C24.75 15.0875 24.7345 15.159 24.6895 15.2266C24.6465 15.291 24.5954 15.3238 24.5674 15.3378C24.5412 15.3509 24.529 15.351 24.5431 15.3487C24.5559 15.3465 24.582 15.3438 24.625 15.3438V14.3438C24.4745 14.3438 24.2871 14.3599 24.1201 14.4434C24.0296 14.4887 23.9316 14.5606 23.8574 14.6719C23.7811 14.7863 23.75 14.9125 23.75 15.0312H24.75ZM24.625 15.3438C24.8806 15.3438 25.3176 15.5032 25.9732 15.9759L26.558 15.1647C25.8699 14.6687 25.2131 14.3438 24.625 14.3438V15.3438ZM25.9694 15.9731C26.2189 16.1566 26.3822 16.3067 26.4784 16.4227C26.5824 16.5481 26.5625 16.5784 26.5625 16.5312H27.5625C27.5625 16.2341 27.4098 15.9793 27.2482 15.7843C27.0787 15.5801 26.8436 15.3747 26.5618 15.1675L25.9694 15.9731ZM26.5625 16.5312C26.5625 16.5204 26.5639 16.5109 26.5657 16.5037C26.5675 16.4967 26.5691 16.4938 26.5684 16.4951C26.5666 16.4988 26.5555 16.5186 26.5214 16.5527L27.2286 17.2598C27.4081 17.0803 27.5625 16.8356 27.5625 16.5312H26.5625ZM26.5001 16.5754C26.3102 16.7907 26.1718 17.1141 26.0587 17.4695C25.9404 17.8413 25.8304 18.3134 25.7269 18.8787L26.7106 19.0588C26.8102 18.5148 26.9112 18.0884 27.0116 17.7727C27.1173 17.4406 27.2054 17.2875 27.2499 17.2371L26.5001 16.5754ZM25.7307 18.8603C25.5138 19.836 25.2819 20.756 25.0349 21.6205L25.9964 21.8952C26.2494 21.0097 26.4862 20.0703 26.7068 19.0772L25.7307 18.8603ZM25.6106 22.2487L26.3372 22.1081L26.1472 21.1263L25.4206 21.2669L25.6106 22.2487ZM26.3156 22.1118C27.5287 21.9318 28.4974 21.7766 29.2196 21.6464C29.9263 21.5189 30.4349 21.4091 30.6994 21.3146L30.3631 20.3729C30.1901 20.4347 29.7651 20.5319 29.0421 20.6622C28.3347 20.7898 27.3776 20.9432 26.1688 21.1226L26.3156 22.1118ZM30.6642 21.3257C30.887 21.2643 31.0616 21.2199 31.1905 21.1912C31.335 21.1591 31.3824 21.1562 31.375 21.1562V20.1562C31.2582 20.1562 31.1103 20.1847 30.9736 20.215C30.8213 20.2489 30.6286 20.2982 30.3983 20.3618L30.6642 21.3257ZM31.375 21.1562C31.5313 21.1562 31.7962 21.2503 32.1837 21.6091L32.8631 20.8753C32.4069 20.4528 31.9062 20.1562 31.375 20.1562V21.1562ZM32.1428 21.5664C32.3088 21.7612 32.4196 21.9206 32.4868 22.0464C32.5565 22.1765 32.5625 22.2393 32.5625 22.25H33.5625C33.5625 22.0107 33.4787 21.7805 33.3686 21.5747C33.2562 21.3645 33.0975 21.145 32.9041 20.918L32.1428 21.5664ZM32.5625 22.25C32.5625 22.2667 32.5587 22.1873 32.6386 22.1074C32.7186 22.0274 32.7979 22.0312 32.7812 22.0312V23.0312C32.9521 23.0312 33.172 22.9882 33.3457 22.8145C33.5195 22.6408 33.5625 22.4208 33.5625 22.25H32.5625ZM32.8634 22.0381C32.5554 21.9867 32.2467 21.9609 31.9375 21.9609V22.9609C32.1908 22.9609 32.4446 22.982 32.6991 23.0244L32.8634 22.0381Z" fill="#333333"/>
</svg>

<svg xmlns="http://www.w3.org/2000/svg" width="50" height="50" fill="none"><path fill="#333" d="M31.938 22.46c-1.375 0-3.477.188-6.305.563l.094.118c.328.453.492.882.492 1.289 0 .093-.04.367-.117.82-.172 1.719-.258 3.688-.258 5.906 0 .703.093 1.18.281 1.43.156.234.531.352 1.125.352 1.813 0 3.375-.196 4.688-.586.406-.11.656-.164.75-.164.25 0 .554.171.914.515.265.266.398.508.398.727 0 .437-.32.75-.96.937-.83.235-2.196.352-4.102.352-1.86 0-3.157-.258-3.891-.774-.531-.406-.797-1.117-.797-2.133V30.22c.094-.719.148-2.5.164-5.344-.734 1.89-1.57 3.484-2.508 4.781-1.312 1.766-2.773 3.078-4.383 3.938-.89.375-1.398.562-1.523.562-.063 0-.094-.031-.094-.093 0-.094.086-.204.258-.329.781-.687 1.758-1.742 2.93-3.164 1.75-2.25 3.07-4.625 3.96-7.125-1.874.297-3.288.602-4.241.914-.375.11-.594.164-.657.164-.234 0-.554-.171-.96-.515-.423-.406-.634-.711-.634-.914 0-.125.063-.188.188-.188.328.063.64.094.938.094.359 0 .89-.055 1.593-.164l4.196-.75c.703-2.297 1.054-4.172 1.054-5.625 0-.5-.047-.852-.14-1.055-.094-.172-.141-.297-.141-.375 0-.125.125-.187.375-.187.422 0 .969.242 1.64.726.532.39.797.711.797.961 0 .125-.062.25-.187.375-.234.266-.453.953-.656 2.063a48.38 48.38 0 0 1-.703 2.789l.726-.14c2.422-.36 3.852-.618 4.29-.774.452-.125.734-.188.843-.188.344 0 .727.196 1.148.586.36.422.54.758.54 1.008 0 .188-.094.281-.282.281a5.13 5.13 0 0 0-.843-.07Z"/><path fill="#333" d="m25.633 23.023-.066-.495-.878.116.553.692.39-.313Zm.094.118.404-.294-.006-.01-.008-.009-.39.313Zm.375 2.109-.493-.085-.003.018-.002.017.498.05Zm.023 7.336.416-.277-.008-.012-.008-.011-.4.3Zm5.813-.234-.13-.483-.013.003.142.48Zm1.664.351.353-.354-.008-.007-.345.361Zm-.563 1.664.136.481h.005l-.14-.48Zm-7.992-.422-.304.398.008.006.009.006.287-.41Zm-.797-3.726-.496-.065-.004.032v.033h.5Zm.164-5.344.5.003-.966-.184.466.181Zm-2.508 4.781.402.299.003-.006-.405-.293Zm-4.383 3.938.195.46.02-.008.021-.011-.236-.441Zm-1.359.14.294.405.019-.014.017-.015-.33-.376Zm2.93-3.164.386.318.008-.01-.394-.308Zm3.96-7.125.472.168.282-.793-.831.131.078.494Zm-4.241.914.14.48.007-.002.008-.003-.155-.475Zm-1.618-.351-.346.36.011.011.012.01.323-.381Zm-.445-1.102.094-.49-.047-.01h-.047v.5Zm2.531-.07.077.494.011-.002-.088-.492Zm4.196-.75.088.492.3-.054.09-.292-.478-.146Zm.914-6.68.454-.21-.007-.014-.008-.015-.44.24Zm1.875.164.296-.402-.004-.003-.292.405Zm.609 1.336-.354-.353-.01.01-.01.012.374.331Zm-.656 2.063.488.108.002-.009.002-.01-.492-.09Zm-.703 2.789-.481-.137-.224.782.8-.154-.095-.491Zm.726-.14-.073-.495-.011.001-.01.002.094.491Zm4.29-.774-.134-.482-.017.005-.018.006.168.47Zm1.991.398.381-.324-.02-.023-.02-.02-.34.367Zm.258 1.29-.082.492.04.007h.042v-.5Zm-.843-.571c-1.41 0-3.539.191-6.37.567l.13.991c2.825-.374 4.9-.558 6.24-.558v-1Zm-6.696 1.375.094.117.781-.625-.094-.117-.78.625Zm.08.098c.289.4.397.728.397.996h1c0-.545-.22-1.076-.588-1.583l-.81.587Zm.397.996-.005.05a19.867 19.867 0 0 1-.105.684l.985.171c.04-.229.07-.416.09-.56.02-.13.035-.257.035-.345h-1Zm-.115.77c-.174 1.74-.26 3.725-.26 5.956h1c0-2.206.085-4.158.255-5.856l-.995-.1Zm-.26 5.956c0 .371.024.7.08.982.054.275.144.539.301.748l.8-.6c-.03-.04-.08-.14-.12-.341a4.195 4.195 0 0 1-.061-.789h-1Zm.365 1.707c.163.244.411.384.665.464.254.08.552.11.876.11v-1c-.27 0-.456-.027-.577-.065-.121-.037-.138-.073-.132-.063l-.832.554Zm1.541.575c1.846 0 3.46-.2 4.83-.607l-.285-.959c-1.254.374-2.766.566-4.545.566v1Zm4.818-.604c.2-.053.355-.092.468-.117.13-.029.166-.03.151-.03v-1c-.108 0-.244.027-.364.053-.136.03-.309.073-.515.129l.26.965Zm.62-.147c.042 0 .222.047.568.377l.691-.722c-.373-.357-.802-.654-1.26-.654v1Zm.56.37c.235.234.252.355.252.373h1c0-.42-.248-.784-.545-1.08l-.707.707Zm.252.373a.26.26 0 0 1-.09.204c-.08.078-.234.172-.511.253l.28.96c.364-.106.69-.262.93-.497.254-.248.391-.563.391-.92h-1Zm-.597.456c-.756.214-2.063.333-3.965.333v1c1.91 0 3.337-.116 4.237-.37l-.272-.963Zm-3.965.333c-1.847 0-3.005-.263-3.604-.683l-.574.819c.87.61 2.305.864 4.177.864v-1Zm-3.587-.67c-.354-.271-.601-.794-.601-1.736h-1c0 1.088.285 1.988.993 2.53l.608-.795Zm-.601-1.736v-1.594h-1v1.593h1Zm-.004-1.53c.099-.756.152-2.573.168-5.405l-1-.006c-.016 2.855-.071 4.601-.16 5.282l.992.13Zm-.798-5.589c-.723 1.86-1.54 3.415-2.447 4.67l.81.585c.968-1.339 1.823-2.973 2.57-4.893l-.933-.362Zm-2.443 4.664c-1.277 1.718-2.685 2.976-4.217 3.795l.471.882c1.686-.9 3.2-2.268 4.549-4.08l-.803-.597Zm-4.176 3.775c-.442.186-.784.324-1.028.414a4.787 4.787 0 0 1-.277.095c-.085.025-.075.014-.024.014v1c.113 0 .234-.034.308-.056.094-.027.208-.067.34-.115.264-.098.622-.242 1.07-.43l-.389-.922ZM16 33.656c.046 0 .172.012.283.123a.407.407 0 0 1 .123.283h-1c0 .109.028.282.17.424.143.143.316.17.424.17v-1Zm.406.407a.313.313 0 0 1-.023.121c-.01.025-.02.036-.02.035.002 0 .008-.009.025-.024a.834.834 0 0 1 .07-.056l-.588-.809c-.106.077-.21.167-.292.271a.75.75 0 0 0-.172.462h1Zm.088.047c.811-.714 1.808-1.792 2.986-3.222l-.772-.636c-1.166 1.415-2.123 2.446-2.874 3.107l.66.75Zm2.994-3.233c1.78-2.289 3.128-4.71 4.038-7.264l-.942-.335c-.872 2.446-2.165 4.774-3.885 6.985l.79.614Zm3.489-7.925c-1.883.297-3.329.607-4.32.932l.311.95c.915-.3 2.297-.6 4.165-.895l-.156-.988Zm-4.305.927a12.223 12.223 0 0 1-.535.143c-.033.007-.018.001.02.001v1a.92.92 0 0 0 .17-.019 3.28 3.28 0 0 0 .161-.037c.119-.03.275-.072.465-.128l-.28-.96Zm-.516.144c.002 0-.011 0-.044-.01a.795.795 0 0 1-.135-.059 2.794 2.794 0 0 1-.459-.328l-.646.764c.22.185.43.337.632.445.196.105.42.188.652.188v-1Zm-.614-.375a3.265 3.265 0 0 1-.41-.458c-.09-.129-.07-.15-.07-.096h-1c0 .257.126.489.248.665.132.19.316.394.539.609l.693-.72Zm-.48-.554a.319.319 0 0 1-.1.213.318.318 0 0 1-.212.1v-1a.688.688 0 0 0-.494.193.688.688 0 0 0-.194.494h1Zm-.406.303c.356.068.7.103 1.032.103v-1c-.262 0-.543-.028-.844-.085l-.188.982Zm1.032.103c.399 0 .961-.06 1.67-.17l-.154-.988c-.697.108-1.197.158-1.517.158v1Zm1.681-.172 4.196-.75-.176-.984-4.196.75.176.984Zm4.586-1.096c.71-2.317 1.076-4.247 1.076-5.771h-1c0 1.382-.336 3.203-1.032 5.479l.956.292Zm1.076-5.771c0-.504-.043-.953-.186-1.264l-.908.419c.044.095.094.35.094.845h1Zm-.201-1.294a1.333 1.333 0 0 1-.077-.159l-.007-.022s.004.017.004.045h-1c0 .127.035.243.067.328.035.092.081.189.135.287l.878-.48Zm-.08-.136a.357.357 0 0 1-.183.307c-.026.013-.038.013-.024.01a.52.52 0 0 1 .082-.004v-1c-.15 0-.338.016-.505.1a.644.644 0 0 0-.37.588h1Zm-.125.313c.256 0 .693.16 1.348.632l.585-.811c-.688-.496-1.345-.821-1.933-.821v1Zm1.344.63c.25.183.413.333.51.449.103.125.084.155.084.108h1c0-.297-.153-.552-.315-.747a3.893 3.893 0 0 0-.686-.617l-.593.806Zm.593.557c0-.01.002-.02.004-.027l.002-.009a.256.256 0 0 1-.047.058l.708.707c.18-.18.334-.424.334-.729h-1Zm-.062.044c-.19.216-.328.54-.441.895-.119.371-.229.843-.332 1.409l.984.18c.1-.544.2-.97.3-1.286.106-.332.194-.485.239-.536l-.75-.662Zm-.77 2.285a47.893 47.893 0 0 1-.695 2.76l.961.275c.253-.885.49-1.825.71-2.818l-.975-.217Zm-.12 3.389.727-.14-.19-.983-.726.14.19.983Zm.706-.137a99.546 99.546 0 0 0 2.904-.466c.706-.127 1.215-.237 1.48-.331l-.337-.942c-.173.062-.598.159-1.32.29-.708.127-1.665.28-2.874.46l.147.989Zm4.348-.786c.223-.062.398-.106.526-.135.145-.032.192-.035.185-.035v-1c-.117 0-.265.029-.401.059-.153.034-.345.083-.576.147l.266.964Zm.711-.17c.156 0 .421.094.809.453l.68-.734c-.457-.422-.958-.719-1.489-.719v1Zm.768.41c.166.195.277.355.344.48.07.13.075.193.075.204h1c0-.24-.083-.47-.193-.675a3.82 3.82 0 0 0-.465-.657l-.761.648Zm.42.684c0 .017-.004-.063.076-.143.08-.08.159-.076.142-.076v1c.171 0 .391-.043.565-.216a.782.782 0 0 0 .217-.565h-1Zm.3-.212a5.616 5.616 0 0 0-.925-.077v1c.253 0 .507.021.761.063l.164-.986Z"/></svg>
